X: 15
T: Praeludia organi op. 5 – Moderato
C: Franciszek Walczyński
%%abc-version 2.0
%%abcx-abcm2ps-target-version 5.9.1 (29 Sep 2008)
%%abc-creator hum2abc beta
%%abcx-conversion-date 2021/10/04 07:38:39
%%abc-edited-by Andrzej Borzym
%%abc-edited-by Krzysztof Stępień
%%abcx-initial-encoding-date 2021-07-26
%%humdrum-veritas 2571777049
%%humdrum-veritas-data 3424920
%%linebreak <none>
%%barnumbers 0
L: 1/4
M: C
N: Derived from pl-kozmzk--mzk-m-159--004_walczynski-franciszek--praeludia-organi-op-5-moderato.krn
Q: "4. Moderato."
%%staves {1 2}
V: 1 clef=treble
V: 2 clef=bass
K: G
[V:1] z4 & z4 | 
[V:2] z4 & G,B,!accent!A,3/G,/ | 
[V:1] z4 & z4 | 
[V:2] DE!accent!D3/C/ & F,2-F,/D,/E,/F,/ | 
[V:1] z4 & GB!accent!A3/G/ | 
[V:2] B,DE2 & G,2C,^C, | 
[V:1] de!accent!d3/c/ & FGFE/F/ | 
[V:2] D4- & D,4 | 
[V:1] BdcB & G3G- | 
[V:2] DB,CD & G,=F,E,D, | 
[V:1] A2d2 & G2^F2 | 
[V:2] E2D=C & C,^C,D,2 | 
[V:1] G2dc/B/ & G2G2- | 
[V:2] B,2=FE/^D/ & G,,2G,2- | 
[V:1] c2g2- & G2cA/c/ | 
[V:2] EC_EC/E/ & G,4- | 
[V:1] g2B3/A/ & B2^F2 | 
[V:2] DB,A,B,/C/ & G,2^D,2 | 
[V:1] GAGF & E2D3/C/ | 
[V:2] B,C-C/B,/A, & E,C,=D,2 | 
[V:1] G4- & B,D^C=C | 
[V:2] G,=F,E,_E, & G,,4- | 
[V:1] G4- & CB,A,C- | 
[V:2] D,2C,_E, & G,,4- | 
[V:1] !fermata!G4 & CB,/A,/B,2 |]  
[V:2] D,4 & !fermata!G,,4 |]  


